X: 1
T: Motel Henry
C: Jean-Claude Mirandette
O: Quebec
R: reel
Z: 2011, 2017 John Chambers <jc:trillian.mit.edu>
S: printed MS of unknown origin
S: handout at Roaring Jelly practice Jan 2017
M: 2/4
L: 1/16
K: A
|: "A"[c3E3]c- cfec | "E7"BABc dcBA | "A"c3c- cfec | "E7"BABc  "A"AE[A2E2] |
   "A"c3c- cfec | "E7"BABc dcBA | "A"c3c- cfec | "E7"BABc  "A"A2[A2E2] :|
|: "D"f3f- fgaf | "A"e2(3cBA e2(3cBA | "E7"B2GB EBGB | "A"ABcd "A7"eA[e2A2] |
   "D"fAAf- fgaf | "A"e2(3cBA e2(3cBA | "D"fgaf "A"ec"D"Aa- | "E7"afec "A"AE[A2E2] :|
